!!!OTL: Nun adje, Schatz, und ich muss fort, ich muss wohl in die Fremde ziehn
!!!ARE: Europa, Mitteleuropa, Lothringen, Breisdorf ( Kr. Diedenhofen )
!!!SCT: D0049
!!!YEM: Copyright 1995, estate of Helmut Schaffrath.
**kern
*ICvox
*Ivox
*M3/8
*k[b-e-]
*g:
{8g
=1
4d
8g
=2
4b-
8a
=3
4g
8f#
=4
[4.g
=5
4g]}
{8g
=6
4b-
8cc
=7
4dd
8ee-
=8
8dd
8b-
8cc
=9
[4.dd
=10
4dd]}
{8dd
=11
4ffn
8dd
=12
8ee-
8dd
8cc
=13
4dd
8cc
=14
[4.b-
=15
4b-]}
{8dd
=16
4dd
8cc
=17
8cc
8b-
8a
=18
4g
8f#
=19
[4.g
=20
4g]}
==
!!!AGN: Ballade
!!!ONB: ESAC (Essen Associative Code) Database: DVA
!!!AMT: simple triple
!!!AIN: vox
!!!EED: Helmut Schaffrath
!!!EEV: 1.0
*-
